src/actions/32/folder-sync.svg

<svg xmlns="http://www.w3.org/2000/svg" viewBox="0 0 32 32">
  <defs
     id="defs3051">
    <style
       type="text/css"
       id="current-color-scheme">
      .ColorScheme-Text {
        color:#2e3440;
      }
      </style>
  </defs>
  <path
     style="fill:currentColor;fill-opacity:1;stroke:none" 
     d="M 4 4 L 4 28 L 16 28 L 16 27 L 5 27 L 5 14 L 10 14 L 13 11 L 27 11 L 27 16 L 28 16 L 28 7 L 18 7 L 15 4 L 4 4 z M 22 16 A 6 6 0 0 0 16 22 A 6 6 0 0 0 16.835938 25.042969 L 17.568359 24.310547 A 5 5 0 0 1 17 22 A 5 5 0 0 1 22 17 A 5 5 0 0 1 24.308594 17.570312 L 25.039062 16.835938 A 6 6 0 0 0 22 16 z M 27.160156 18.957031 L 26.431641 19.689453 A 5 5 0 0 1 27 22 A 5 5 0 0 1 22 27 A 5 5 0 0 1 19.691406 26.429688 L 18.957031 27.160156 A 6 6 0 0 0 22 28 A 6 6 0 0 0 28 22 A 6 6 0 0 0 27.164062 18.957031 L 27.160156 18.957031 z "
     id="path85" 
     class="ColorScheme-Text"
     />
</svg>

<svg viewBox="0 0 32 32" xmlns="http://www.w3.org/2000/svg">
 <defs>
  <style type="text/css">.ColorScheme-Text {
        color:#2e3440;
      }</style>
 </defs>
 <path class="ColorScheme-Text" d="m4 4v24h12v-1h-11v-13h5l3-3h14v5h1v-9h-10l-3-3h-11zm18 12a6 6 0 0 0-6 6 6 6 0 0 0 0.83594 3.043l0.73242-0.73242a5 5 0 0 1-0.56836-2.3105 5 5 0 0 1 5-5 5 5 0 0 1 2.3086 0.57031l0.73047-0.73437a6 6 0 0 0-3.0391-0.83594zm5.1602 2.957-0.72852 0.73242a5 5 0 0 1 0.56836 2.3105 5 5 0 0 1-5 5 5 5 0 0 1-2.3086-0.57031l-0.73438 0.73047a6 6 0 0 0 3.043 0.83984 6 6 0 0 0 6-6 6 6 0 0 0-0.83594-3.043h-0.003906z" fill="currentColor"/>
</svg>
